X: 4208
T: The PEELER'S AWAY WITH MY DAUGHTER
R: Jig
%R: jig
B: James Kerr "Merry Melodies" v.4 p.23 #208
Z: 2016 John Chambers <jc:trillian.mit.edu>
N: The rest between the parts is a bit odd, and there's a "stumble" at the end when repeating the tune.
M: 6/8
L: 1/8
K: Ador
gf |\
eAA ABd | ede g2e | dBG GAG | BGB dgf |\
eAA ABd | ede g2a | g2e dBG | ABA A  :|
z |: B |\
eaa age | aga b2a | gag gdB | gag gab |\
aba age | aga b2a | g2e dBG | ABA A2 :|

%%sep 1 1 500
%%sep 1 1 500

